public/footer/insta.svg

<svg width="32" height="32" viewBox="0 0 32 32" fill="none" xmlns="http://www.w3.org/2000/svg">
<path d="M20.2002 24.3213H11.7942C9.52499 24.3213 7.67578 22.4773 7.67578 20.2029V11.7969C7.67578 9.52768 9.51987 7.68359 11.7942 7.68359H20.2002C22.4694 7.68359 24.3135 9.52768 24.3135 11.7969V20.2029C24.3135 22.4721 22.4694 24.3213 20.2002 24.3213ZM11.7942 9.22033C10.3702 9.22033 9.21252 10.378 9.21252 11.7969V20.2029C9.21252 21.6269 10.3702 22.7846 11.7942 22.7846H20.2002C21.6242 22.7846 22.7768 21.6269 22.7768 20.2029V11.7969C22.7768 10.3729 21.6191 9.22033 20.2002 9.22033H11.7942Z" fill="#979797"/>
<path d="M15.9939 20.4838C13.5248 20.4838 11.5117 18.4758 11.5117 16.0017C11.5117 13.5275 13.5197 11.5195 15.9939 11.5195C18.468 11.5195 20.476 13.5275 20.476 16.0017C20.476 18.4758 18.468 20.4838 15.9939 20.4838ZM15.9939 13.0563C14.3701 13.0563 13.0485 14.3779 13.0485 16.0017C13.0485 17.6255 14.3701 18.9471 15.9939 18.9471C17.6177 18.9471 18.9393 17.6255 18.9393 16.0017C18.9393 14.3779 17.6177 13.0563 15.9939 13.0563Z" fill="#979797"/>
<path d="M20.3337 12.063C20.792 12.063 21.1636 11.6915 21.1636 11.2332C21.1636 10.7749 20.792 10.4033 20.3337 10.4033C19.8754 10.4033 19.5039 10.7749 19.5039 11.2332C19.5039 11.6915 19.8754 12.063 20.3337 12.063Z" fill="#979797"/>
</svg>

<svg width="32" height="32" fill="none" xmlns="http://www.w3.org/2000/svg"><path d="M20.2 24.321h-8.406a4.122 4.122 0 0 1-4.118-4.118v-8.406a4.118 4.118 0 0 1 4.118-4.113H20.2a4.117 4.117 0 0 1 4.114 4.113v8.406A4.12 4.12 0 0 1 20.2 24.32zm-8.406-15.1a2.583 2.583 0 0 0-2.581 2.576v8.406a2.584 2.584 0 0 0 2.581 2.582H20.2a2.58 2.58 0 0 0 2.577-2.582v-8.406A2.579 2.579 0 0 0 20.2 9.22h-8.406z" fill="#979797"/><path d="M15.994 20.484a4.487 4.487 0 0 1-4.482-4.482 4.484 4.484 0 0 1 4.482-4.482 4.484 4.484 0 0 1 4.482 4.482 4.484 4.484 0 0 1-4.482 4.482zm0-7.428a2.95 2.95 0 0 0-2.945 2.946 2.95 2.95 0 0 0 2.945 2.945 2.95 2.95 0 0 0 2.945-2.945 2.95 2.95 0 0 0-2.945-2.946zM20.334 12.063a.83.83 0 1 0 0-1.66.83.83 0 0 0 0 1.66z" fill="#979797"/></svg>
